X:18
T: CHRISTINCHEN GIENG IN GARTEN
N: E0002F
O: Europa, Mitteleuropa, Deutschland, Nieder - Hessen
R: Sage, Maerchen -, Zauber - Lied
M: 6/8
L: 1/8
K: Bb
F | B2FB2c | AFz3
F | B2FB2c | AFz3
F | F2dd2c | B2DF2
B | A2EE2G | G2FD2

@@@ Tune index: 3668
